icons/evolvere-blue-folders-flat-vivid-dark-fallback/apps/64/meld.svg

<?xml version="1.0" encoding="UTF-8" standalone="no"?>
<!-- Created with Inkscape (http://www.inkscape.org/) -->

<svg
   xmlns:dc="http://purl.org/dc/elements/1.1/"
   xmlns:cc="http://creativecommons.org/ns#"
   xmlns:rdf="http://www.w3.org/1999/02/22-rdf-syntax-ns#"
   xmlns:svg="http://www.w3.org/2000/svg"
   xmlns="http://www.w3.org/2000/svg"
   xmlns:sodipodi="http://sodipodi.sourceforge.net/DTD/sodipodi-0.dtd"
   xmlns:inkscape="http://www.inkscape.org/namespaces/inkscape"
   width="64"
   height="64"
   id="svg13094"
   version="1.1"
   inkscape:version="0.91+devel r"
   sodipodi:docname="meld.svg">
  <sodipodi:namedview
     id="base"
     pagecolor="#ffffff"
     bordercolor="#666666"
     borderopacity="1.0"
     inkscape:pageopacity="0"
     inkscape:pageshadow="2"
     inkscape:zoom="11.313709"
     inkscape:cx="30.021438"
     inkscape:cy="31.097628"
     inkscape:document-units="px"
     inkscape:current-layer="svg13094"
     showgrid="false"
     inkscape:snap-bbox="true"
     inkscape:bbox-paths="true"
     inkscape:bbox-nodes="true"
     inkscape:snap-bbox-edge-midpoints="true"
     inkscape:snap-bbox-midpoints="true"
     inkscape:object-paths="true"
     inkscape:snap-intersection-paths="true"
     inkscape:object-nodes="true"
     inkscape:snap-smooth-nodes="true"
     inkscape:snap-midpoints="true"
     inkscape:snap-object-midpoints="true"
     inkscape:snap-center="true"
     showguides="true"
     inkscape:guide-bbox="true"
     inkscape:window-width="1920"
     inkscape:window-height="1023"
     inkscape:window-x="-10"
     inkscape:window-y="35"
     inkscape:window-maximized="1"
     inkscape:snap-global="true"
     fit-margin-top="0"
     fit-margin-left="0"
     fit-margin-right="0"
     fit-margin-bottom="0"
     showborder="true"
     inkscape:showpageshadow="false"
     inkscape:snap-page="true">
    <inkscape:grid
       type="xygrid"
       id="grid3075"
       empspacing="5"
       visible="true"
       enabled="true"
       snapvisiblegridlinesonly="true"
       originx="0px"
       originy="18px" />
  </sodipodi:namedview>
  <defs
     id="defs13096" />
  <metadata
     id="metadata13099">
    <rdf:RDF>
      <cc:Work
         rdf:about="">
        <dc:format>image/svg+xml</dc:format>
        <dc:type
           rdf:resource="http://purl.org/dc/dcmitype/StillImage" />
        <dc:title></dc:title>
      </cc:Work>
    </rdf:RDF>
  </metadata>
  <path
     inkscape:connector-curvature="0"
     style="color:#000000;fill:#6755ca;fill-opacity:1;fill-rule:nonzero;stroke:none;stroke-width:2.28571415;marker:none;visibility:visible;display:inline;overflow:visible;enable-background:accumulate"
     d="m 0,4 0,30 0,28 2,2 30,0 30,0 2,-2 L 64,34 64,4 32,4 0,4 z"
     id="path3443" />
  <path
     inkscape:connector-curvature="0"
     style="color:#000000;fill:#9675ff;fill-opacity:1;fill-rule:nonzero;stroke:none;stroke-width:2.28571415000000000;marker:none;visibility:visible;display:inline;overflow:visible;enable-background:accumulate"
     d="M 2,0 0,1 0,4 32,4 64,4 64,1 62,0 32,0 2,0 z"
     id="path3447" />
  <path
     style="color:#000000;fill:#ffc052;fill-opacity:1;fill-rule:nonzero;stroke:none;stroke-width:2;stroke-linecap:butt;stroke-linejoin:miter;stroke-miterlimit:4;stroke-opacity:1;stroke-dasharray:none;stroke-dashoffset:0;marker:none;visibility:visible;display:inline;overflow:visible;enable-background:accumulate"
     d="M 2 0 L 0 1 L 0 4 L 20.375 4 L 20.375 0 L 2 0 z "
     id="rect3854" />
  <path
     d="M 64,6 62,4 64,3 z"
     id="path3028"
     style="fill:#7d64e2;fill-opacity:1"
     inkscape:connector-curvature="0" />
  <g
     id="g3043"
     inkscape:export-filename="folder.png"
     inkscape:export-xdpi="90"
     inkscape:export-ydpi="90"
     transform="translate(-0.625,0.082283)" />
  <g
     id="scalable"
     transform="matrix(1.0385892,0,0,1.0385892,1214.7222,1878.8121)"
     inkscape:label="#g3701"
     style="fill:#ffffff" />
  <path
     id="path3897"
     d="m 0,4 0,30 0,19.25 c 0.67986646,0.520781 1.4006054,1.017807 2.125,1.5 6.1538561,4.096341 13.511191,6.795704 20.875,6.6875 7.366569,-0.10815 14.748859,-3.167122 20.59375,-10.46875 3.107058,-3.881448 3.562631,-8.515335 2.5625,-12.5625 -1.000113,-4.047168 -3.396319,-7.57937 -6.25,-9.21875 l -0.03125,0 c -2.327655,-1.078638 -4.684397,-0.728013 -6.375,0.1875 -1.690599,0.915606 -2.819904,2.32821 -3.1875,3.71875 l -0.34375,1.125 c -0.262761,-0.01464 -0.557869,-0.04855 -0.8125,-0.09375 -1.305,-0.231375 -2.260706,-0.779583 -2.5625,-1.78125 -0.387891,-3.075586 0.412133,-5.604318 2,-7.5 1.609551,-1.921572 4.04377,-3.21187 6.96875,-3.53125 4.964418,-0.542037 9.378433,1.634912 12.71875,5.1875 3.340341,3.552594 5.533925,8.50086 5.9375,13.21875 C 54.990067,48.735794 50.454765,57.829805 43.65625,64 L 62,64 64,62 64,34 64,14.8125 c -0.680628,-0.521447 -1.399736,-1.017228 -2.125,-1.5 C 55.721145,9.21618 48.363824,6.4855451 41,6.59375 33.63343,6.7018974 26.251141,9.7608759 20.40625,17.0625 c -3.10704,3.88145 -3.562613,8.546585 -2.5625,12.59375 1.000131,4.047169 3.396334,7.51687 6.25,9.15625 L 24.125,38.875 c 2.327673,1.078635 4.684398,0.728016 6.375,-0.1875 1.690599,-0.915603 2.819922,-2.328202 3.1875,-3.71875 l 0.34375,-1.1875 c 0.275091,0.0037 0.543079,0.02716 0.8125,0.0625 0.653838,0.08582 1.24398,0.22721 1.6875,0.5 0.404709,0.248928 0.716894,0.542504 0.875,0.96875 0.0055,0.01461 -0.0055,0.04786 0,0.0625 0.817611,6.227913 -3.163641,10.678666 -8.96875,11.3125 -4.964403,0.54204 -9.378415,-1.572409 -12.71875,-5.125 C 12.37843,38.009918 10.184843,33.061638 9.78125,28.34375 9.0074757,19.297819 13.557082,10.17109 20.375,4 L 0,4 z"
     style="font-size:medium;font-style:normal;font-variant:normal;font-weight:normal;font-stretch:normal;text-indent:0;text-align:start;text-decoration:none;line-height:normal;letter-spacing:normal;word-spacing:normal;text-transform:none;direction:ltr;block-progression:tb;writing-mode:lr-tb;text-anchor:start;baseline-shift:baseline;color:#000000;fill:#e79024;fill-opacity:1;fill-rule:evenodd;stroke:none;stroke-width:0.99999994px;marker:none;visibility:visible;display:inline;overflow:visible;enable-background:accumulate;font-family:Sans;-inkscape-font-specification:Sans"
     inkscape:connector-curvature="0" />
  <path
     style="fill:#ffce79;fill-opacity:1;fill-rule:nonzero"
     d="M 0,3 0,6 2,4 Z"
     id="path4298"
     inkscape:connector-curvature="0"
     sodipodi:nodetypes="cccc" />
</svg>

<svg xmlns="http://www.w3.org/2000/svg" viewBox="0 0 64 64"><g color="#000"><path d="m0 4v30 28l2 2h30 30l2-2v-28-30h-32-32" fill="#6755ca"/><path d="m2 0l-2 1v3h32 32v-3l-2-1h-30-30" fill="#9675ff"/><path d="m2 0l-2 1v3h20.375v-4h-18.375" fill="#ffc052"/></g><path d="m64 6l-2-2 2-1z" fill="#7d64e2"/><path d="m0 4v30 19.25c.68.521 1.401 1.018 2.125 1.5 6.154 4.096 13.511 6.796 20.875 6.688 7.367-.108 14.749-3.167 20.594-10.469 3.107-3.881 3.563-8.515 2.563-12.563-1-4.047-3.396-7.579-6.25-9.219h-.031c-2.328-1.079-4.684-.728-6.375.188-1.691.916-2.82 2.328-3.188 3.719l-.344 1.125c-.263-.015-.558-.049-.813-.094-1.305-.231-2.261-.78-2.563-1.781-.388-3.076.412-5.604 2-7.5 1.61-1.922 4.04-3.212 6.969-3.531 4.964-.542 9.378 1.635 12.719 5.188 3.34 3.553 5.534 8.501 5.938 13.219.771 9.02-3.764 18.11-10.563 24.281h18.344l2-2v-28-19.19c-.681-.521-1.4-1.017-2.125-1.5-6.154-4.096-13.511-6.827-20.875-6.719-7.367.108-14.749 3.167-20.594 10.469-3.107 3.881-3.563 8.547-2.563 12.594 1 4.047 3.396 7.517 6.25 9.156l.031.063c2.328 1.079 4.684.728 6.375-.188 1.691-.916 2.82-2.328 3.188-3.719l.344-1.188c.275.004.543.027.813.063.654.086 1.244.227 1.688.5.405.249.717.543.875.969.005.015-.005.048 0 .063.818 6.228-3.164 10.679-8.969 11.313-4.964.542-9.378-1.572-12.719-5.125-3.34-3.553-5.534-8.501-5.938-13.219-.774-9.05 3.776-18.17 10.594-24.344h-20.375" color="#000" fill-rule="evenodd" fill="#e79024"/><path d="m0 3v3l2-2" fill="#ffce79"/></svg>
